src/pos-icons/google-analytics.svg

<svg height="24" viewBox="0 0 24 24" width="24" xmlns="http://www.w3.org/2000/svg"><path d="m15.86 4.39v15c0 1.67 1.14 2.61 2.39 2.61 1.14 0 2.39-.79 2.39-2.61v-14.89c0-1.54-1.14-2.5-2.39-2.5s-2.39 1.06-2.39 2.39m-6.25 7.61v7.39c0 1.68 1.16 2.61 2.39 2.61 1.14 0 2.39-.79 2.39-2.61v-7.28c0-1.54-1.14-2.5-2.39-2.5s-2.39 1.06-2.39 2.39m-3.86 5.23c1.32 0 2.39 1.07 2.39 2.38 0 1.32-1.07 2.39-2.39 2.39s-2.39-1.07-2.39-2.39c0-1.31 1.07-2.38 2.39-2.38z"/></svg>

<?xml version="1.0" encoding="UTF-8"?><!DOCTYPE svg PUBLIC "-//W3C//DTD SVG 1.1//EN" "http://www.w3.org/Graphics/SVG/1.1/DTD/svg11.dtd"><svg xmlns="http://www.w3.org/2000/svg" xmlns:xlink="http://www.w3.org/1999/xlink" version="1.1" id="mdi-google-analytics" width="24" height="24" viewBox="0 0 24 24"><path d="M15.86 4.39V19.39C15.86 21.06 17 22 18.25 22C19.39 22 20.64 21.21 20.64 19.39V4.5C20.64 2.96 19.5 2 18.25 2S15.86 3.06 15.86 4.39M9.61 12V19.39C9.61 21.07 10.77 22 12 22C13.14 22 14.39 21.21 14.39 19.39V12.11C14.39 10.57 13.25 9.61 12 9.61S9.61 10.67 9.61 12M5.75 17.23C7.07 17.23 8.14 18.3 8.14 19.61C8.14 20.93 7.07 22 5.75 22S3.36 20.93 3.36 19.61C3.36 18.3 4.43 17.23 5.75 17.23Z" /></svg>
